X: 867
T: Alex Burke's
R: jig
M: 6/8
K: Edorian
|:~E3 GBE|~E3 DFA|~E3 GBe|g/a/bg faf|
~E3 GBE|~E3 DFA|~E3 GBe|fed e3:|
|:B2e gee|Bee dBA|Bee Bgg|Baa Bbb|
B2e gee|Bee dBA|G/A/BG F2G|GED E3:|

